src/lib/packages/icons/src/assets/line/arrows-move.svg

<svg width="24" height="24" viewBox="0 0 24 24" fill="none" xmlns="http://www.w3.org/2000/svg">
<path d="M21.692 12.2872C21.654 12.3792 21.5991 12.4621 21.5301 12.5311L18.5301 15.5311C18.3841 15.6771 18.1921 15.7511 18.0001 15.7511C17.8081 15.7511 17.6161 15.6781 17.4701 15.5311C17.1771 15.2381 17.1771 14.7631 17.4701 14.4701L19.1901 12.7501H12.7511V19.1891L14.4711 17.4691C14.7641 17.1761 15.2391 17.1761 15.5321 17.4691C15.8251 17.7621 15.8251 18.2371 15.5321 18.5301L12.5321 21.5301C12.4631 21.5991 12.3802 21.654 12.2892 21.692C12.1982 21.73 12.1001 21.7501 12.0021 21.7501C11.9041 21.7501 11.8072 21.73 11.7152 21.692C11.6232 21.654 11.541 21.5991 11.472 21.5301L8.47204 18.5301C8.17904 18.2371 8.17904 17.7621 8.47204 17.4691C8.76504 17.1761 9.24007 17.1761 9.53307 17.4691L11.253 19.1891V12.7501H4.81408L6.53405 14.4701C6.82705 14.7631 6.82705 15.2381 6.53405 15.5311C6.38805 15.6771 6.19602 15.7511 6.00402 15.7511C5.81202 15.7511 5.62024 15.6781 5.47424 15.5311L2.47424 12.5311C2.40524 12.4621 2.35013 12.3792 2.31213 12.2872C2.23613 12.1042 2.23613 11.8972 2.31213 11.7142C2.35013 11.6222 2.40524 11.5391 2.47424 11.4701L5.47424 8.47009C5.76724 8.17709 6.24203 8.17709 6.53503 8.47009C6.82803 8.76309 6.82803 9.23812 6.53503 9.53112L4.81506 11.2511H11.254V4.81213L9.53405 6.5321C9.24105 6.8251 8.76602 6.8251 8.47302 6.5321C8.18002 6.2391 8.18002 5.76406 8.47302 5.47106L11.473 2.47106C11.542 2.40206 11.6252 2.3472 11.7172 2.3092C11.9002 2.2332 12.1072 2.2332 12.2902 2.3092C12.3822 2.3472 12.4651 2.40206 12.5341 2.47106L15.5341 5.47106C15.8271 5.76406 15.8271 6.2391 15.5341 6.5321C15.3881 6.6781 15.196 6.75207 15.004 6.75207C14.812 6.75207 14.6202 6.6791 14.4742 6.5321L12.754 4.81213V11.2511H19.1932L17.473 9.53112C17.18 9.23812 17.18 8.76309 17.473 8.47009C17.766 8.17709 18.241 8.17709 18.534 8.47009L21.534 11.4701C21.6031 11.5391 21.6582 11.6222 21.6962 11.7142C21.7682 11.8972 21.768 12.1032 21.692 12.2872Z" fill="currentColor"/>
</svg>

<svg xmlns="http://www.w3.org/2000/svg" width="24" height="24" fill="none"><path fill="currentColor" d="M21.692 12.287a.748.748 0 0 1-.162.244l-3 3a.748.748 0 0 1-1.06 0 .75.75 0 0 1 0-1.06l1.72-1.72h-6.439v6.438l1.72-1.72a.75.75 0 1 1 1.061 1.061l-3 3a.755.755 0 0 1-.817.162.745.745 0 0 1-.243-.162l-3-3a.75.75 0 1 1 1.061-1.06l1.72 1.72v-6.44H4.814l1.72 1.72a.75.75 0 0 1-1.06 1.061l-3-3a.749.749 0 0 1-.162-.817.75.75 0 0 1 .162-.244l3-3a.75.75 0 1 1 1.061 1.061l-1.72 1.72h6.439V4.812l-1.72 1.72a.75.75 0 1 1-1.061-1.06l3-3a.75.75 0 0 1 .817-.163.748.748 0 0 1 .244.162l3 3a.75.75 0 0 1-1.06 1.061l-1.72-1.72v6.44h6.44l-1.721-1.72a.75.75 0 0 1 1.061-1.062l3 3c.07.07.124.152.162.244a.767.767 0 0 1-.004.573Z"/></svg>
